X:47
T:Highland Society of Scotland, The
T:An Comunn Rioghail Gaidhealach
R:Slow Strathspey
S:Simon Fraser Collection
N:No.5
N:transposed from A
O:Scottish
M:C
L:1/8
Q:1/4=140
K:D
f/>e/|dBAF AAAf/e/|dF E2 Ef/e/|d>BAF BB AF/>E/|
D>B A/>G/F/>E/ D2 D:|
g|f>da>f g/f/e/d/ a>g|f>dg>f e2 e<g|f>da>f b/d'/c'/d'/ c'/b/a/g/|
g>ffc d2 df/e/|d<d'a<f B/c/d A>F|d>Fd>F E2 EF/G/|A>B d<f e<f d>A|
B>GA>F D2 D||
